packages/kaspersky-hexa-ui-icons/src/iconsSVGs/64x42/FlagVn.svg

<svg xmlns="http://www.w3.org/2000/svg" width="64" height="42" fill="none" viewBox="0 0 64 42"><g clip-path="url(#a)"><rect width="64" height="42" fill="#fff" rx="5"/><path fill="#ea403f" d="M0 0h64v42H0z"/><path fill="#fffe4e" fill-rule="evenodd" d="m32 25.9139-7.4061 5.2796 2.7326-8.6751-7.3098-5.4121 9.0949-.0819L32 8.3999l2.8884 8.6245 9.0949.0819-7.3098 5.4121 2.7326 8.6751z" clip-rule="evenodd"/></g><defs><clipPath id="a"><rect width="64" height="42" fill="#fff" rx="5"/></clipPath></defs></svg>

<svg width="64" height="42" viewBox="0 0 64 42" fill="none" xmlns="http://www.w3.org/2000/svg">
<g clip-path="url(#clip0_37941_2375)">
<rect width="64" height="42" rx="5" fill="white"/>
<rect width="64" height="42" fill="#EA403F"/>
<path fill-rule="evenodd" clip-rule="evenodd" d="M32 25.9139L24.5939 31.1935L27.3265 22.5184L20.0167 17.1063L29.1116 17.0244L32 8.3999L34.8884 17.0244L43.9833 17.1063L36.6735 22.5184L39.4061 31.1935L32 25.9139Z" fill="#FFFE4E"/>
</g>
<defs>
<clipPath id="clip0_37941_2375">
<rect width="64" height="42" rx="5" fill="white"/>
</clipPath>
</defs>
</svg>
